icon-themes/breeze_svg/cmd/sc_linecirclearrow.svg

<svg viewBox="0 0 16 16" xmlns="http://www.w3.org/2000/svg">/&gt;<path d="m3.5 6c-.828427 0-1.5.6715826-1.5 1.5 0 .8285007.671573 1.5 1.5 1.5.6558381 0 1.2024102-.4135828 1.40625-1h.09375 1 6v.25.75l2-1.5-2-1.5v.75.25h-6-1-.09375c-.2038398-.5864172-.7504119-1-1.40625-1z" fill="#4d4d4d"/></svg>

<svg xmlns="http://www.w3.org/2000/svg" viewBox="0 0 16 16">
     />
 <path 
     style="fill:#4d4d4d" 
     d="M 3.5 6 C 2.671573 6 2 6.6715826 2 7.5 C 2 8.3285007 2.671573 9 3.5 9 C 4.1558381 9 4.7024102 8.5864172 4.90625 8 L 5 8 L 6 8 L 12 8 L 12 8.25 L 12 9 L 14 7.5 L 12 6 L 12 6.75 L 12 7 L 6 7 L 5 7 L 4.90625 7 C 4.7024102 6.4135828 4.1558381 6 3.5 6 z "
     />
 </svg>
